!!!OTL: Henslein. / (Tanzlied.)
!!!ARE: Europa, Mitteleuropa, Deutschland
!!!SCT: A0304B
!!!TXL: @@GMH
!!!YEM: Copyright 1995, estate of Helmut Schaffrath.
**kern	**text
*M3/2	*
*met(3)	*
*clefC4	*
*k[b-]	*
*F:	*
!LO:TX:a:t=P:coloured notes:problem	!
{2F	Al-
=1	=1
1A	-ſo
2A	trit
=2	=2
1F	vn-
2F	-ſer
=3	=3
1G	Henſl
2G	dort
=4	=4
1F	her,
2r}	.
=5	=5
{1A	nach
2A	der
=6	=6
1F	leng
2F	vnd
=7	=7
1G	nach
2G	der
=8	=8
1F}	ʒwerch(quer):
{2B-	das
=9	=9
2.A	hi-
4G	-cka-
2F	-di
=10	=10
2.G	hi-
4F	-cka-
2E	-di
=11	=11
2F	ha-
2F	-ha-
2G	-ha-
=12	=12
1F/ll}	-ha!
==	==
!!!GTL: Tanz- und Kranzlieder
!!!AGN: Romanze, Ballade, Lied
!! Schmeltzels Quodl. 1544 No. 9
!!!ONB: ESAC (Essen Associative Code) Database: ALTDEU
!!!AMT: simple triple
!!!AIN: vox
!!!EED: Helmut Schaffrath
!!!EEV: 1.0
!!!RDF**kern: l = terminal long
!!!URL-scan: https://rosdok.uni-rostock.de/mcrviewer/recordIdentifier/rosdok_ppn738218359/iview2/phys_0461.iview2?x=-495.6391625615763&y=-1041.599507366307&scale=0.4629418472063854&rotation=0&layout=singlePageLayout&logicalDiv=log_0012
!!!ENC: Anna Maria Matuszewska
!!!EEV: 2024/12/03
*-	*-
